X: 131001
Q: "Scotch Jig."
M: 6/8
L: 1/8
K: Am
|: uE |\
gec cge | dBG GAB | c2A BGE | c3 A2 :|
|: ug |\
aba age | gag geg | aba age | g3 e2a |\
gec cge | dBG Ged | c2A BGE | c3 A2 :|


